!!!OTL: Die Jugendzeit.
!!!OTL-incipit:FROHE STUNDEN GIBTS IM LEBEN
!!!COM: G. W. Fink (umgearb.)
!!!ARE: Europa, Mitteleuropa, Deutschland
!!!SCT: F0259
!!!TXL: @@DE
!!!YEM: Copyright 1995, estate of Helmut Schaffrath.
**kern	**text
*ICvox	*
*clefG2	*
*M3/4	*
*k[f#]	*
*G:	*
!LO:TX:a:t=Mäßig.	!
{8.b/	1._Froher
16a	.
=1	=1
4.g	Stun-
8a	-den
8b/	gibt's
8cc/	im
=2	=2
4b/	Le-
4a}	-ben,
{8.cc/	fro-
16b/	-her
=3	=3
4.a	Ta-
8a	-ge
8.b/	gibt
16cc#/	es
=4	=4
4dd/	viel,
4r}	.
{8.dd/	wo
16ccn/	wir
=5	=5
4.b/	oh-
8ffn	-ne
8ee	Sorgen
8dd	.
=6	=6
4dd	ſchwe-
4cc}	-ben
{8cc	un-
8cc	-ter
=7	=7
4.ee	Sang
8dd	und
8cc/	Tanʒ
8b/	und
=8	=8
2a	Spiel,
4r}	.
=9	=9
{8.g	wo
16f#	wir
8g	oh-
8a	-ne
8b/	Sorgen
8cc/	.
=10	=10
(>4dd/	ſchwe-
4gg/)	.
4ee/}	-ben
=11	=11
{8.dd	un-
16ee	-ter
8dd	Sang
8cc	und
8b/	Tanʒ
8a	und
=12	=12
4g	Spiel.
4r}	.
==	==
!!!AGN: Jugend - Lied, Belehrung, Moral, religioes
!!!ONB: ESAC (Essen Associative Code) Database: FINK
!!!AMT: simple triple
!!!AIN: vox
!!!EED: Helmut Schaffrath
!!!EEV: 1.0
!!!RDF**kern: > = above
!!!GTL: Jugendlieder
!!Umgearbeitet von G. W. Fink.
!!!source: Musikalischer Hausschatz der Deutschen. Eine Sammlung von über 1000 Liedern und Gesängen mit Singstimmen und Klavierbegleitung. Leipzig, Litterarisches Verlags-Haus.
!!!page: 156
!!!URL-scan: https://www.digitale-sammlungen.de/en/view/bsb11144622?page=154,155
!!!ENC: Anna Maria Matuszewska
!!!EEV: 2024/07/29
*-	*-
